icon-themes/breeze_svg/cmd/sc_connectorlinecircleend.svg

<svg viewBox="0 0 16 16" xmlns="http://www.w3.org/2000/svg">/&gt;<path d="m3.84375 3.15625c-.0225-.0208334-.6875.6875-.6875.6875l8 8c-.09475.196667-.15625.42325-.15625.65625 0 .828417.671582 1.5 1.5 1.5.8285 0 1.5-.671583 1.5-1.5 0-.828501-.6715-1.5-1.5-1.5-.233 0-.4595.061667-.65625.15625zm8.65625 8.84375c.276166 0 .5.223833.5.5 0 .276084-.223834.5-.5.5-.276084 0-.5-.223916-.5-.5 0-.276167.223916-.5.5-.5z" fill="#4d4d4d"/></svg>

<svg xmlns="http://www.w3.org/2000/svg" viewBox="0 0 16 16">
     />
 <path 
     style="fill:#4d4d4d" 
     d="M 3.84375 3.15625 C 3.82125 3.1354166 3.15625 3.84375 3.15625 3.84375 L 11.15625 11.84375 C 11.0615 12.040417 11 12.267 11 12.5 C 11 13.328417 11.671582 14 12.5 14 C 13.3285 14 14 13.328417 14 12.5 C 14 11.671499 13.3285 11 12.5 11 C 12.267 11 12.0405 11.061667 11.84375 11.15625 L 3.84375 3.15625 z M 12.5 12 C 12.776166 12 13 12.223833 13 12.5 C 13 12.776084 12.776166 13 12.5 13 C 12.223916 13 12 12.776084 12 12.5 C 12 12.223833 12.223916 12 12.5 12 z "
     />
 </svg>
